X: 123
T: the Soldier's joy
%R: reel
Z: 2017 John Chambers <jc:trillian.mit.edu>
B: John Treat - "Gamut for the Fifes", 1779, p.11 #3
F: https://archive.org/details/GamutFortheFifes
N: The left edge of the 2nd strain is missing; it may have another (f?) pickup note.
M: C|
L: 1/8
K: D
% - - - - - - - - - - - - - - - - - - - - - - - - -
FG |\
AFDF AFDF | A2d2 d2cB | AFDF AFDF | G2EE E2FG |\
AFDF AFDF | A2d2 d2fg | afcf gece | d2D2 D2 :|
|: zg |\
fdfd fagf | ecef g4 | fdfd fagf | edcB A4 |\
fdfd fagf | ecef g4 | afcf gece | d2D2 D2 :|
% - - - - - - - - - - - - - - - - - - - - - - - - -
